packages/icons/svg/24/Invalid.svg

<svg width="24" height="24" viewBox="0 0 24 24" fill="none" xmlns="http://www.w3.org/2000/svg">
<path fill-rule="evenodd" clip-rule="evenodd" d="M5 22C3.34315 22 2 20.6569 2 19V5C2 3.34315 3.34315 2 5 2H15C16.6569 2 18 3.34315 18 5V15H22V19C22 20.6569 20.6569 22 19 22H5ZM18 19C18 19.2652 18.1054 19.5196 18.2929 19.7071C18.4804 19.8946 18.7348 20 19 20C19.2652 20 19.5196 19.8946 19.7071 19.7071C19.8946 19.5196 20 19.2652 20 19V17H18V19ZM11.0819 16.8469C11.0819 17.4837 10.5656 18 9.92874 18C9.29189 18 8.77562 17.4837 8.77562 16.8469C8.77562 16.21 9.29189 15.6938 9.92874 15.6938C10.5656 15.6938 11.0819 16.21 11.0819 16.8469ZM11.0063 13.3967C11.0432 13.3229 11.117 13.203 11.1631 13.1292C11.4142 12.761 11.764 12.4544 12.1185 12.1435C12.9365 11.4263 13.7802 10.6866 13.4971 9.11635C13.2295 7.55733 11.9842 6.27505 10.4251 6.04443C8.5248 5.76768 6.84585 6.93925 6.33848 8.6182C6.18165 9.15325 6.58755 9.69753 7.14105 9.69753H7.32555C7.70378 9.69753 8.0082 9.43 8.13735 9.0979C8.43255 8.27688 9.2997 7.71415 10.2591 7.9171C11.1447 8.1016 11.7904 8.97798 11.7074 9.88203C11.6449 10.5864 11.1417 10.976 10.5834 11.4083C10.2349 11.678 9.86497 11.9644 9.56723 12.3543C9.54814 12.3734 9.4852 12.4627 9.43889 12.5283C9.41803 12.5579 9.40054 12.5827 9.39195 12.5942C9.30893 12.7233 9.19823 12.9447 9.14288 13.0923C9.13365 13.1015 9.13365 13.1108 9.13365 13.12C9.02295 13.4521 8.94915 13.8488 8.94915 14.3192H10.8034C10.8034 14.0886 10.831 13.8857 10.8956 13.6919C10.9049 13.655 10.9879 13.4244 11.0063 13.3967Z" fill="#858585"/>
</svg>

<svg width="24" height="24" fill="none" xmlns="http://www.w3.org/2000/svg" viewBox="0 0 24 24"><path fill-rule="evenodd" clip-rule="evenodd" d="M5 22a3 3 0 01-3-3V5a3 3 0 013-3h10a3 3 0 013 3v10h4v4a3 3 0 01-3 3H5zm13-3a1 1 0 002 0v-2h-2v2zm-6.918-2.153a1.153 1.153 0 11-2.306 0 1.153 1.153 0 012.306 0zm-.076-3.45c.037-.074.111-.194.157-.268.251-.368.601-.675.955-.986.819-.717 1.662-1.456 1.38-3.027-.268-1.559-1.514-2.84-3.073-3.072a3.692 3.692 0 00-4.087 2.574.845.845 0 00.803 1.08h.185c.378 0 .682-.268.811-.6a1.841 1.841 0 012.122-1.18c.886.184 1.531 1.06 1.448 1.964-.062.704-.565 1.094-1.124 1.526-.348.27-.718.556-1.016.946-.019.02-.082.109-.128.174l-.047.066c-.083.13-.194.35-.25.498-.008.01-.008.019-.008.028-.111.332-.185.729-.185 1.2h1.854c0-.231.028-.434.093-.628.009-.037.092-.268.11-.295z" fill="currentColor"></path></svg>
